X:23003
T:When Johnny Comes Marching Home
T:Johnny I Hardly Knew Ye
R:Jig
C:Trad. Words Patrick Gilmore 1863
O:Ireland, then USA
Z:Paul Hardy's Session Tunebook 2022 (see www.paulhardy.net). Creative Commons cc by-nc-sa licenced.
M:6/8
L:1/8
Q:3/8=110
K:C
"Am"E|EAA A2 B|c2 B c2 A|"C"G4-GE|G4-GA|"Am"EAA A2 B|c2 B c2 d|"C"e4-ec|"E"e4-ec||
"Am"e2 e edc|"G"d2 d d2 B|"Am"c2 c cBA|"Em"B2 B Bcd|"Am"e3 "G"d3|"F"c3 "E"B2E|"Am"EAA A2 G|A3-A2|]

